X:1
T:Hind Horn
M:2/4
L:1/8
K:G
 D2| G2G-A| G2 B,3/2- C/2| D3 E| D3 z| G2 GA| G2 ED| G2 GA| B2 AA|\
 B2 d2| B3 G| A2 GG| E3 D| E3/2 F/2 G3/2 A/2| B3 G| A2 G2| D4-| D2 z2|\
